X: 136005
Q: "Irish Jig."
M: 6/8
L: 1/8
K: A
uE |\
|: ue |\
aga fga | fba gfe | aga fga | bag a2 ((3e/f/g/ |\
a)gf edc | fed cBA | fga ecA | dBG A2 :|


